X: 1
T: The Eagle's Whistle
R: polka
M: 2/4
L: 1/8
K: Gmaj
G/A/||BB d/B/A/G/|BB d/B/A/G/|BA AB/d/|BA AG/A/|
BB d/B/A/G/|BB d/B/A/d/|AG GB/d/|AG GB/d/|
gd e/d/B/d/|gd e/d/B/G/|BA AB/d/|BA AB/d/|
gd e/d/B/d/|gd e/d/B/d/|AG GB/d/|AG Gd/c/||


Tune 1837	Setting 23900

